X:1
T:Title
%%score { ( 1 3 ) | ( 2 4 ) }
L:1/8
Q:1/4=100
M:4/4
K:Db
V:1 treble nm="Grand Piano"
V:3 treble 
V:2 bass 
V:4 bass 
V:1
 [FA]2 [FA][GB] [FA][EG][DF][EG] | A4 z4 | B2 Bc d2 B2 | [FA]6 z2 | z2 .E2 z4 | F2 FG A2 F2 | %6
w: Herbert~G.~Tovey * * * * * *||||||
 E2 AB [Ec]2 [DB]2 |[M:7/8] [A,A]-[A,A]-[A,A]- [A,A]- [A,A]3 |[M:1/4] [CGA]2 | %9
w: |||
[M:4/4] [DFd]3 [DAc] [DGB]2 [DFA]2 | [DFA]2 [CEG]4 [CGA]2 | [EGc]3 [DGB] [CGA]2 [CGB]2 | %12
w: |||
 [DFA]6 [A,EG]2 | F3 G A2 F2 |[M:9/8] G2 A- A B2- B [Gc]2 | %15
w: |||
[M:4/4] [Fd]2 [A,FA]2 [A,CF]3[K:bass] [G,CE] | D6 z2 |] %17
w: ||
V:2
 [D,D]2 [D,D][D,D] [D,D]2 [D,A,]2 | [D,D]2 [E,C]2 [F,D]2 [F,D]2 | z2 .D2 z4 | z2 A,2 D2 D,2 | %4
 A,,2 G,F, [E,A,C]2 [A,,A,]2 | [D,A,D]2 A,-[E,A,C] [F,A,D]2 [F,A,D]2 | %6
 [A,C]2 [C,A,][B,,=G,] [A,,A,]2 [E,G,]2 |[M:7/8] A,,2 G,2 F,3 |[M:1/4] E,2 | %9
[M:4/4] D,3 D, D,2 D,2 | A,,2 A,,4 A,2 | A,3 A, A,2 A,2 | D,2 A,,2 D,2 C,2 | %13
 [D,A,D]3 [E,A,C] [F,A,D]2 [D,A,D]2 |[M:9/8] [E,A,C]2 [F,A,D]- [F,A,D] [G,D]2- [G,D] [E,A,]2 | %15
[M:4/4] [D,A,]2 D,2 A,,3 A,, | z2 G,2 F,2 z2 |] %17
V:3
 x8 | F2 G2 A2 A2 | x8 | D2 z2 z2 [A,DF]2 | [A,CE]2 [A,C]-[A,CF] G2 [CE]2 | x8 | z2 E2 z4 | %7
[M:7/8] C- C3 D3 |[M:1/4] x2 |[M:4/4] x8 | x8 | x8 | x8 | x8 |[M:9/8] x9 |[M:4/4] x7[K:bass] x | %16
 F,2 B,2 A,2 z2 |] %17
V:4
 x8 | x8 | [G,DG]2 [G,G]-[G,CG] [G,B,G]2 [G,DG]2 | D,6 z2 | x8 | z2 .[D,D]2 z4 | x8 |[M:7/8] x7 | %8
[M:1/4] x2 |[M:4/4] x8 | x8 | x8 | x8 | x8 |[M:9/8] x9 |[M:4/4] x8 | D,6 z2 |] %17

